X: 34410
T: Richard Dwyer's
R: reel
M: 4/4
K: Gminor
G,|:C2G,C EFGE|FDB,G, CA,B,A,|G,CEC DFBF|GccB c3B|
G2GF EG,CE|DBFD EGFD|CG,EG, FG,EF|1 GFED G,CCG,:|2 GFED G,CC2||
|:c2Gc ecGc|B2FB dcBA|BAGF EFGF|ECDB, G,CC2|
c2Gc EcGc|BABF DB,B,G,|CDEF GccA|1 BGFA GCC2:|2 BGFA GFED:|

